X:1
T:Kept for Jesus
T:Kept for Jesus
T:Ira Allen Sankey, 1905
T:Edith Gilling Cherry (1872-1897)
T:Public Domain Courtesy of the Cyber Hymnal™
C:Ira Allen Sankey, 1905
Z:Public Domain
Z:Courtesy of the Cyber Hymnal™
%%score ( 1 2 ) ( 3 4 )
L:1/8
Q:1/4=105
M:6/8
K:Eb
V:1 treble 
V:2 treble 
V:3 bass 
V:4 bass 
V:1
 [EG]>[EG][EG] [EG]2 [EG] | [GB]3 [EG]2 z | [GB]>[FA][EG] [EF]2 [DA] | [EG]3- [EG]2 z | %4
w: 1.~Oh, to be “Kept for|Je- sus!”|Kept, by the power of|God; *|
w: 2.~Oh, to be “Kept for|Je- sus!”|Serv- ing as He shall|choose; *|
w: 3.~Oh, to be “Kept for|Je- sus!”|Kept from the world a-|part; *|
w: 4.~Oh, to be “Kept for|Je- sus!”|Oh, to be all His|own; *|
 [EG]>[EG][EG] [EG]2 [EG] | [GB]3 [EG]2 z | [GB]>[FA][EG] [DF]2 [DG] | E3- E2 z || %8
w: Kept from the world un-|spot- ted,|Tread- ing where Je- sus|trod. *|
w: “Kept” for the Mas- ter’s|plea- sure;|“Kept” for the Mas- ter’s|use. *|
w: Low- ly in mind and|spir- it,|Gen- tle and pure in|heart. *|
w: Kept, to be His for-|ev- er,|Kept, to be His a-|lone! *|
"^Refrain" [EA]>[EA][EA] [EA]2 [Ac] | [Ac]3 [GB]2 z | [E=A]>[EA][EA] (AB)[Ec] | ([DB-]3 [AB]2) z | %12
w: ||||
w: Oh, to be “Kept for|Je- sus!”|Lord, at Thy feet * I|fall; *|
w: ||||
w: ||||
 [Ge]>[Ge][Ge] [Ad][Ad] !fermata!z | [B_d][Bd] !fermata!z [Ac] !fermata![Ac]2 | %14
w: ||
w: I would be “no- thing,|no- thing, no- thing”;|
w: ||
w: ||
 [GB]>[FA][EG] G2 [DF] | E3- E2 z |] %16
w: ||
w: Thou shall be “all in|all.” *|
w: ||
w: ||
V:2
 x6 | x6 | x6 | x6 | x6 | x6 | x6 | E3- E2 x || x6 | x6 | x3 E2 x | x6 | x6 | x6 | x3 (EC) x | %15
 E3- E2 x |] %16
V:3
 [E,B,]>[E,B,][E,B,] [E,B,]2 [E,B,] | [E,E]3 [E,B,]2 z | [E,B,]>[F,B,][G,B,] [A,C]2 B, | %3
 [E,B,]3- [E,B,]2 z | [E,B,]>[E,B,][E,B,] [E,B,]2 [E,B,] | [E,E]3 [E,B,]2 z | %6
 B,>B,B, [B,,A,]2 [B,,B,] | [E,G,]3- [E,G,]2 z || [A,,A,C]>[A,,A,C][A,,A,C] [A,,A,C]2 [A,,A,E] | %9
 [E,E]3 [E,E]2 z | [F,C]>[F,C][F,C] (F,G,)[F,=A,] | B,3 [B,D]2 z | %12
 [E,E]>[E,B,][E,B,] [F,B,][F,B,] !fermata!z | [G,E][G,E] !fermata!z [A,E] !fermata![A,E]2 | %14
 [B,E]>B,B, [B,,B,]2 [B,,A,] | [E,G,]3- [E,G,]2 z |] %16
V:4
 x6 | x6 | x5 B, | x6 | x6 | x6 | B,>B,B, x3 | x6 || x6 | x6 | x3 F,2 x | B,3 x3 | x6 | x6 | %14
 x3/2 B,/B, x3 | x6 |] %16

